X:1
T:Canon in D
T:Canon and Gigue in D
T:Johann Pachelbel
C:Johann Pachelbel
%%score [ 1 2 3 4 ]
L:1/8
Q:1/4=48
M:4/4
K:D
V:1 treble nm="Violin 1" snm="V1"
V:2 treble nm="Violin 2" snm="V2"
V:3 treble nm="Violin 3" snm="V3"
V:4 bass nm="Violoncello" snm="Vc."
V:1
 z8 | z8 | f2 e2 d2 c2 | B2 A2 B2 c2 | d2 c2 B2 A2 | G2 F2 G2 E2 | DF AG FD FE | DB, DA GB AG | %8
 FD Ec dfaA | BG AF Ddd>c | d/c/d/D/ C/A/E/F/ D/d/c/B/ c/f/a/b/ | %11
 g/f/e/g/ f/e/d/c/ B/A/G/F/ E/G/F/E/ | D/E/F/G/ A/E/A/G/ F/B/A/G/ A/G/F/E/ | %13
 D/B,/B/c/ d/c/B/A/ G/F/E/B/ A/B/A/G/ | Ff e2 z d f2 | b2 a2 b2 c'2 | d'd c2 z B d2 | d3 d dg ea | %18
 a/f/4g/4 a/f/4g/4 a/4A/4B/4c/4d/4e/4f/4g/4 f/d/4e/4 f/F/4G/4 A/4B/4A/4G/4A/4F/4G/4A/4 | %19
 G/B/4A/4 G/F/4E/4 F/4E/4D/4E/4F/4G/4A/4B/4 G/B/4A/4 B/c/4d/4 A/4B/4c/4d/4e/4f/4g/4a/4 | %20
 f/d/4e/4 f/e/4d/4 e/4c/4d/4e/4f/4e/4d/4c/4 d/B/4c/4d/D/4E/4 F/4G/4F/4E/4F/4d/4c/4d/4 | %21
 B/d/4c/4 B/A/4G/4 A/4G/4F/4G/4A/4B/4c/4d/4 B/d/4c/4 d/c/4B/4 c/4d/4e/4d/4c/4d/4B/4c/4 | %22
 d z c z B z d z | D z D z D z E z | z A z A z F z A | z G z F z G z e | %26
 f/F/G/F/ E/e/f/e/ d/F/D/B/ A/A,/G,/A,/ | B,/B/c/B/ A/A,/G,/A,/ B,/B/A/B/ c/C/B,/C/ | %28
 D/d/e/d/ c/C/D/C/ B,/B/A/B/ c/C/F/E/ | D/d/e/g/ f/F/A/f/ d/g/f/g/ e/A/G/A/ | %30
 F/A/A/A/ A/A/A/A/ F/F/F/F/ F/F/A/A/ | G/G/G/d/ d/d/d/d/ d/d/B/B/ A/A/e/c/ | %32
 A/f/f/f/ e/e/e/e/ d/d/d/d/ a/a/a/a/ | b/b/b/b/ a/a/a/a/ b/b/b/b/ c'/c/c/c/ | %34
 d/D/4E/4F/D/ C/c/4d/4e/c/ B/B,/4C/4D/B,/ C/A/4G/4F/E/ | %35
 D/G/4F/4E/G/ F/D/4E/4F/A/ G/B/4A/4G/F/ E/A/4G/4F/E/ | %36
 F/d/4c/4d/F/ A/A/4B/4c/A/ F/d/4e/4f/d/ f/f/4e/4d/c/ | %37
 B/B/4A/4B/c/ d/f/4e/4d/f/ g/d/4c/4B/B/ A/E/A/A/ | A3 A D3 A | G2 A2 GD D>C | Dd c2 B2 A2 | %41
 D>E F2 B2 E>E | F>f f/g/f/e/ d>d d/e/d/c/ | B2 d2 d/=c/B/c/ A>A | A>a a/b/a/g/ f>f f/g/f/e/ | %45
 d/=c/B/c/ A>A Gd ^c>c | d d2 c- c B2 A- | A G2 F- F>E E2 | F f2 e d d'2 =c' | b2 d'a b2 a2 | %50
 a2 A>G F2 f>e | d3 d d2 c2 | dD Cc BB, A,A | Gg fF EB Ee | fF Ee dD Cc | Bb aA G>e AA | %56
 A2 z2 z4 |][M:12/8]"^Gigue"[Q:3/8=100] z12 | z12 | z6 d'2 c' bc'a | gaf efd c3 d2 e | %61
 fge dec BAB E3 | E3 z3 z6 | a2 g fge dec BcA | ^GEG AFA BGB cAc | B^GB cAc BGc B3 | cAd c2 B c6 :: %67
 z12 | z12 | z12 | d2 a f>ef dAd fdf | g2 f e2 d cFd c3 | B3 B2 e c>Bc d3 | d2 g e>de f3 a3 | %74
 a3 c'ac' d'bd' c'ac' | d'bd' c'ac' d'bd' d'2 c' | d'3 d'2 c' d'6 :| %77
V:2
 z8 | z8 | z8 | z8 | f2 e2 d2 c2 | B2 A2 B2 c2 | d2 c2 B2 A2 | G2 F2 G2 E2 | DFAG FDFE | %9
 DB,DA GBAG | FDEc dfaA | BGAF Dd d>c | d/c/d/D/ C/A/E/F/ D/d/c/B/ c/f/a/b/ | %13
 g/f/e/g/ f/e/d/c/ B/A/G/F/ E/G/F/E/ | D/E/F/G/ A/E/A/G/ F/B/A/G/ A/G/F/E/ | %15
 D/B,/B/c/ d/c/B/A/ G/F/E/B/ A/B/A/G/ | Ff e2 z d f2 | b2 a2 b2 c'2 | d'd c2 z B d2 | d3 d dgea | %20
 a/f/4g/4a/f/4g/4 a/4A/4B/4c/4d/4e/4f/4g/4 f/d/4e/4f/F/4G/4 A/4B/4A/4G/4A/4F/4G/4A/4 | %21
 G/B/4A/4G/F/4E/4 F/4E/4D/4E/4F/4G/4A/4B/4 G/B/4A/4B/c/4d/4 A/4B/4c/4d/4e/4f/4g/4a/4 | %22
 f/d/4e/4f/e/4d/4 e/4c/4d/4e/4f/4e/4d/4c/4 d/B/4c/4d/D/4E/4 F/4G/4F/4E/4F/4d/4c/4d/4 | %23
 B/d/4c/4B/A/4G/4 A/4G/4F/4G/4A/4B/4c/4d/4 B/d/4c/4d/c/4B/4 c/4d/4e/4d/4c/4d/4B/4c/4 | %24
 d z c z B z d z | D z D z D z E z | z A z A z F z A | z G z F z G z e | %28
 f/F/G/F/ E/e/f/e/ d/F/D/B/ A/A,/G,/A,/ | B,/B/c/B/ A/A,/G,/A,/ B,/B/A/B/ c/C/B,/C/ | %30
 D/d/e/d/ c/C/D/C/ B,/B/A/B/ c/C/F/E/ | D/d/e/g/ f/F/A/f/ d/g/f/g/ e/A/G/A/ | %32
 F/A/A/A/ A/A/A/A/ F/F/F/F/ F/F/A/A/ | G/G/G/d/ d/d/d/d/ d/d/B/B/ A/A/e/c/ | %34
 A/f/f/f/ e/e/e/e/ d/d/d/d/ a/a/a/a/ | b/b/b/b/ a/a/a/a/ b/b/b/b/ c'/c/c/c/ | %36
 d/D/4E/4F/D/ C/c/4d/4e/c/ B/B,/4C/4D/B,/ C/A/4G/4F/E/ | %37
 D/G/4F/4E/G/ F/D/4E/4F/A/ G/B/4A/4G/F/ E/A/4G/4F/E/ | %38
 F/d/4c/4d/F/ A/A/4B/4c/A/ F/d/4e/4f/d/ f/f/4e/4d/c/ | %39
 B/B/4A/4B/c/ d/f/4e/4d/f/ g/d/4c/4B/B/ A/E/A/A/ | A3 A D3 A | G2 A2 GD D>C | Dd c2 B2 A2 | %43
 D>E F2 B2 E>E | F>f f/g/f/e/ d>d d/e/d/c/ | B2 d2 d/=c/B/c/ A>A | A>a a/b/a/g/ f>f f/g/f/e/ | %47
 d/=c/B/c/ A>A Gd ^c>c | d d2 c2 B2 A- | A G2 F- F>E E2 | F f2 e d d'2 =c' | b2 d'a b2 a2 | %52
 a2 A>G F2 f>e | d3 d d2 c2 | dDCc BB,A,A | GgfF EBEe | f2 z2 z4 |][M:12/8] z12 | %58
 a2 g fge dec BcA | ^G3 AB=G FGA B2 c | d2 d B3 A3 A2 G | F3 z3 e2 d cdB | ABG FGE DEF EFD | %63
 CDE Ddc B2 c dec | B^GB cAc GEG AFA | ^GEG AFA GEA A2 G | A3 A2 ^G A6 :: A2 e c>Bc AEA cAc | %68
 d2 e d2 e f2 g a2 A | BeB AdA B2 A BAG | F2 G A3 A3 A3 | B3 c2 B ^A2 B c2 f | ^d>cd e3 e2 a f>ef | %73
 g2 b a3 a2 d' c'>bc' | aea ece fdf ece | fdf ece fdf e3 | fdg f2 e f6 :| %77
V:3
 z8 | z8 | z8 | z8 | z8 | z8 | f2 e2 d2 c2 | B2 A2 B2 c2 | d2 c2 B2 A2 | G2 F2 G2 E2 | DFAG FDFE | %11
 DB,DA GBAG | FDEc dfaA | BGAF Dd d>c | d/c/d/D/ C/A/E/F/ D/d/c/B/ c/f/a/b/ | %15
 g/f/e/g/ f/e/d/c/ B/A/G/F/ E/G/F/E/ | D/E/F/G/ A/E/A/G/ F/B/A/G/ A/G/F/E/ | %17
 D/B,/B/c/ d/c/B/A/ G/F/E/B/ A/B/A/G/ | Ff e2 z d f2 | b2 a2 b2 c'2 | d'd c2 z B d2 | d3 d dgea | %22
 a/f/4g/4a/f/4g/4 a/4A/4B/4c/4d/4e/4f/4g/4 f/d/4e/4f/F/4G/4 A/4B/4A/4G/4A/4F/4G/4A/4 | %23
 G/B/4A/4G/F/4E/4 F/4E/4D/4E/4F/4G/4A/4B/4 G/B/4A/4B/c/4d/4 A/4B/4c/4d/4e/4f/4g/4a/4 | %24
 f/d/4e/4f/e/4d/4 e/4c/4d/4e/4f/4e/4d/4c/4 d/B/4c/4d/D/4E/4 F/4G/4F/4E/4F/4d/4c/4d/4 | %25
 B/d/4c/4B/A/4G/4 A/4G/4F/4G/4A/4B/4c/4d/4 B/d/4c/4d/c/4B/4 c/4d/4e/4d/4c/4d/4B/4c/4 | %26
 d z c z B z d z | D z D z D z E z | z A z A z F z A | z G z F z G z e | %30
 f/F/G/F/ E/e/f/e/ d/F/D/B/ A/A,/G,/A,/ | B,/B/c/B/ B/A,/G,/A,/ B,/B/A/B/ c/C/B,/C/ | %32
 D/d/e/d/ c/C/D/C/ B,/B/A/B/ c/C/F/E/ | D/d/e/g/ f/F/A/f/ d/g/f/g/ e/A/G/A/ | %34
 F/A/A/A/ A/A/A/A/ F/F/F/F/ F/F/A/A/ | G/G/G/d/ d/d/d/d/ d/d/B/B/ A/A/e/c/ | %36
 A/f/f/f/ e/e/e/e/ d/d/d/d/ a/a/a/a/ | b/b/b/b/ a/a/a/a/ b/b/b/b/ c'/c/c/c/ | %38
 d/D/4E/4F/D/ C/c/4d/4e/c/ B/B,/4C/4D/B,/ C/A/4G/4F/E/ | %39
 D/G/4F/4E/G/ F/D/4E/4F/A/ G/B/4A/4G/F/ E/A/4G/4F/E/ | %40
 F/d/4c/4d/F/ A/A/4B/4c/A/ F/d/4e/4f/d/ f/f/4e/4d/c/ | %41
 B/B/4A/4B/c/ d/f/4e/4d/f/ g/d/4c/4B/B/ A/E/A/A/ | A3 A D3 A | G2 A2 GD D>C | Dd c2 B2 A2 | %45
 D>E F2 B2 E>E | F>f f/g/f/e/ d>d d/e/d/c/ | B2 d2 d/=c/B/c/ A>A | A>a a/b/a/g/ f>f f/g/f/e/ | %49
 d/=c/B/c/ A>A Gd ^c>c | d d2 c- c B2 A- | A G2 F- F>E E2 | F f2 e d d'2 =c' | b2 d'a b2 a2 | %54
 a2 A>G F2 f>e | d3 d d2 c2 | d2 z2 z4 |][M:12/8] d2 c BcA GAF EFD | C3 Ddc BcA GAF | %59
 EFD C3 DEF G2 A | B2 A ^G3 A2 =G FGE | DEC B,CA, ^G,3 A,2 B, | C3 DEC B,CD B,3 | %63
 A,3 A2 G F2 E F3 | B,2 E E3 EB,E E3 | EB,E E3 E3 E3 | E2 F E2 D E6 :: z12 | D2 A F>EF DA,D FDF | %69
 GEG FDF G2 F GFE | D2 E D3 F3 D3 | D3 A2 F F2 B B2 ^A | BFB ^G>FG A3 A2 d | B>AB c>Bc d3 e3 | %74
 c3 AA,A AA,A AA,A | AA,A AA,A AA,A AA,A | A2 B A2 G A6 :| %77
V:4
 D,2 A,,2 B,,2 F,,2 | G,,2 D,,2 G,,2 A,,2 | D,2 A,,2 B,,2 F,,2 | G,,2 D,,2 G,,2 A,,2 | %4
 D,2 A,,2 B,,2 F,,2 | G,,2 D,,2 G,,2 A,,2 | D,2 A,,2 B,,2 F,,2 | G,,2 D,,2 G,,2 A,,2 | %8
 D,2 A,,2 B,,2 F,,2 | G,,2 D,,2 G,,2 A,,2 | D,2 A,,2 B,,2 F,,2 | G,,2 D,,2 G,,2 A,,2 | %12
 D,2 A,,2 B,,2 F,,2 | G,,2 D,,2 G,,2 A,,2 | D,2 A,,2 B,,2 F,,2 | G,,2 D,,2 G,,2 A,,2 | %16
 D,2 A,,2 B,,2 F,,2 | G,,2 D,,2 G,,2 A,,2 | D,2 A,,2 B,,2 F,,2 | G,,2 D,,2 G,,2 A,,2 | %20
 D,2 A,,2 B,,2 F,,2 | G,,2 D,,2 G,,2 A,,2 | D,2 A,,2 B,,2 F,,2 | G,,2 D,,2 G,,2 A,,2 | %24
 D,2 A,,2 B,,2 F,,2 | G,,2 D,,2 G,,2 A,,2 | D,2 A,,2 B,,2 F,,2 | G,,2 D,,2 G,,2 A,,2 | %28
 D,2 A,,2 B,,2 F,,2 | G,,2 D,,2 G,,2 A,,2 | D,2 A,,2 B,,2 F,,2 | G,,2 D,,2 G,,2 A,,2 | %32
 D,2 A,,2 B,,2 F,,2 | G,,2 D,,2 G,,2 A,,2 | D,2 A,,2 B,,2 F,,2 | G,,2 D,,2 G,,2 A,,2 | %36
 D,2 A,,2 B,,2 F,,2 | G,,2 D,,2 G,,2 A,,2 | D,2 A,,2 B,,2 F,,2 | G,,2 D,,2 G,,2 A,,2 | %40
 D,2 A,,2 B,,2 F,,2 | G,,2 D,,2 G,,2 A,,2 | D,2 A,,2 B,,2 F,,2 | G,,2 D,,2 G,,2 A,,2 | %44
 D,2 A,,2 B,,2 F,,2 | G,,2 D,,2 G,,2 A,,2 | D,2 A,,2 B,,2 F,,2 | G,,2 D,,2 G,,2 A,,2 | %48
 D,2 A,,2 B,,2 F,,2 | G,,2 D,,2 G,,2 A,,2 | D,2 A,,2 B,,2 F,,2 | G,,2 D,,2 G,,2 A,,2 | %52
 D,2 A,,2 B,,2 F,,2 | G,,2 D,,2 G,,2 A,,2 | D,2 A,,2 B,,2 F,,2 | G,,2 D,,2 G,,2 A,,2 | D,2 z2 z4 |] %57
[M:12/8] D,3 G,2 F, E,2 D, C,2 B,, | A,,3 D,,3 G,,3 B,,3 | E,3 A,,3 D,3 G,,3 | %60
 G,,2 D,, E,,3 A,,3 D,2 G,, | D,3 D,3 E,2 B,, A,,3 | A,,3 D,3 G,2 D, ^G,,3 | %63
 A,,B,,C, D,3 D,,3 D,,3 | E,,3 E,,3 E,,3 E,,3 | E,,3 E,,3 E,,3 E,,3 | A,,3 A,,3 A,,6 :: %67
 A,,2 ^G,, A,,3 A,,3 A,,3 | D,2 C, D,3 D,3 D,3 | G,,3 D,3 G,,2 D, G,,2 A,, | D,2 C, D,3 D,3 D,3 | %71
 G,,3 A,,2 B,, F,,3 F,,3 | B,,3 E,3 A,,3 D,3 | G,,3 A,,3 D,3 A,,3 | A,,3 A,,3 A,,3 A,,3 | %75
 A,,3 A,,3 A,,3 A,,3 | D,,3 D,,3 D,,6 :| %77

